public/primaries/Key.svg

<svg id="Layer_1" data-name="Layer 1" xmlns="http://www.w3.org/2000/svg" width="64" height="64" viewBox="0 0 64 64">
  <defs>
    <style>
      .cls-1 {
        fill-rule: evenodd;
      }
    </style>
  </defs>
  <title>Icons 100</title>
  <path class="cls-1" d="M13.414,53.4144l-2.8284-2.8283A2,2,0,0,1,10,49.172V46.8291a2,2,0,0,1,.5856-1.4141l17.12-17.12a0.999,0.999,0,0,0,.2927-0.7068v-4.199a13.252,13.252,0,0,1,13.0045-13.386A12.9993,12.9993,0,0,1,53.9971,22.9961a13.2521,13.2521,0,0,1-13.386,13.0052H34.4127a1,1,0,0,0-.7071.2928l-1.414,1.414a1,1,0,0,0-.293.7073v2.1714a1,1,0,0,1-.2927.707l-1.4143,1.4141a1,1,0,0,1-.7072.2929H28.4131a1,1,0,0,0-.7071.2929l-1.4141,1.414a1,1,0,0,0-.293.7072v1.1714a1,1,0,0,1-.293.7073l-1.414,1.414A1,1,0,0,1,23.5848,49H21.4136a0.9994,0.9994,0,0,0-.7072.293l-1.414,1.414a1,1,0,0,0-.293.7073V52.586a1,1,0,0,1-.2929.7071l-0.4142.4141A0.9987,0.9987,0,0,1,17.5854,54H14.828A1.9994,1.9994,0,0,1,13.414,53.4144ZM44.9978,22.0021a3,3,0,1,0-3-3A3,3,0,0,0,44.9978,22.0021Zm-30.285,26.7L30.7048,32.71a1,1,0,0,0-1.4142-1.4141L13.2987,47.2878A1,1,0,1,0,14.7128,48.7018Z"/>
</svg>

<svg id="Layer_1" data-name="Layer 1" xmlns="http://www.w3.org/2000/svg" width="64" height="64" viewBox="0 0 64 64"><defs><style>.cls-1{fill-rule:evenodd}</style></defs><title>Icons 100</title><path class="cls-1" d="M13.414 53.414l-2.828-2.828A2 2 0 0 1 10 49.172v-2.343a2 2 0 0 1 .586-1.414l17.12-17.12a.999.999 0 0 0 .292-.707V23.39a13.252 13.252 0 0 1 13.005-13.386 13 13 0 0 1 12.994 12.993 13.252 13.252 0 0 1-13.386 13.005h-6.198a1 1 0 0 0-.707.293l-1.414 1.414a1 1 0 0 0-.293.707v2.172a1 1 0 0 1-.293.707l-1.414 1.414a1 1 0 0 1-.708.293h-1.17a1 1 0 0 0-.708.293l-1.414 1.414a1 1 0 0 0-.293.707v1.171a1 1 0 0 1-.293.708l-1.414 1.414a1 1 0 0 1-.707.292h-2.171a1 1 0 0 0-.708.293l-1.414 1.414a1 1 0 0 0-.293.707v1.172a1 1 0 0 1-.293.707l-.414.414a.999.999 0 0 1-.707.293h-2.757a2 2 0 0 1-1.414-.586zm31.584-31.412a3 3 0 1 0-3-3 3 3 0 0 0 3 3zm-30.285 26.7L30.705 32.71a1 1 0 0 0-1.414-1.414L13.299 47.288a1 1 0 1 0 1.414 1.414z"/></svg>
